X:1
T:Angels from the realms of glory
T:Angels from the realms of glory
T:unknown
C:Henry Smart
Z:All Rights Reserved
L:1/4
M:4/4
K:C
V:1 treble nm="Electric Piano"
%%MIDI program 4
V:1
"C" G E c G | e3/2 d/ c G |"F" A A"C" G c |"G7" G3/2 F/"C" E2 | G E c G | e3/2 d/ c B | %6
w: An- gels from the|realms of glo- ry|wing your flight o'er|all the earth|~ye, who sang cre-|a- tions sto- ry|
"Am" c B A B/c/ |"D7" B3/2 A/"G7" G2 | d3/2 d/ B G |"C" e3/2 d/"F" c A |"Dm" f3/2 e/ d c | %11
w: now pro- claim Mes *|si- ahs birth|come and wor ship|come and wor ship|wor- ship Christ the|
"G7" c B"C" c2 | G E c G | e3/2 d/ c G |"F" A A"C" G c |"G7" G3/2 F/"C" E2 | G E c G | %17
w: new- born king!|Shep- herds in the|field a- bid- ing|watch- ing o'er your|flocks by night|God with man is|
 e3/2 d/ c B |"Am" c B A B/c/ |"D7" B3/2 A/"G7" G2 | d3/2 d/ B G |"C" e3/2 d/"F" c A | %22
w: now re- sid- ing|yon- der shines the *|in- fant light|come and wor- ship|come and wor- ship|
"Dm" f3/2 e/ d c |"G7" c B"C" c2 |] %24
w: wor- ship Christ the|new- born King.|

